X:179
M:4/4
L:1/8
K:D
|: A2FA DAFA | dfab affa | b2bb afdf | gefd efdB | 
|: f | aff2 afef | defa b2bb | aff2 afdf | gbag e2fg | 
aff2 afef | defa b2bc' | d'c'ba bc'd'b | afef d3 :|| 

